svgs/sharp-regular/house-medical-flag.svg

<svg xmlns="http://www.w3.org/2000/svg" viewBox="0 0 640 512"><!--! Font Awesome Pro 6.6.0 by @fontawesome - https://fontawesome.com License - https://fontawesome.com/license (Commercial License) Copyright 2024 Fonticons, Inc. --><path d="M496 24l0-24L448 0l0 24 0 8 0 160 0 320 48 0 0-320 144 0 0-160L496 32l0-8zM416 133L286.3 36.7 272 26.1 257.7 36.7 19.4 213.5 .2 227.8l28.6 38.5L48 252.1l16-11.9L64 488l0 24 24 0 328 0 0-48-304 0 0-245.6 0-13.8L272 85.9 416 192.7l0-59.8zM240 192l0 64-64 0 0 64 64 0 0 64 64 0 0-64 64 0 0-64-64 0 0-64-64 0z"/></svg>

<svg xmlns="http://www.w3.org/2000/svg" viewBox="0 0 640 512"><!--! Font Awesome Pro 6.4.2 by @fontawesome - https://fontawesome.com License - https://fontawesome.com/license (Commercial License) Copyright 2023 Fonticons, Inc. --><path d="M496 24V0H448V24v8V192 512h48V192H640V32H496V24zM416 133L286.3 36.7 272 26.1 257.7 36.7 19.4 213.5 .2 227.8l28.6 38.5L48 252.1l16-11.9V488v24H88 416V464l-304 0V218.4 204.6L272 85.9 416 192.7V133zM240 192v64H176v64h64v64h64V320h64V256H304V192H240z"/></svg>
